src/Resource_Files/material/git-manage.svg

<svg clip-rule="evenodd" fill-rule="evenodd" viewBox="0 0 24 24" xmlns="http://www.w3.org/2000/svg"><g fill="none"><path d="m0 0h24v24h-24z"/><g stroke="#1abc9c" stroke-width="2"><path d="m12 15c-1.654 0-3-1.346-3-3s1.346-3 3-3 3 1.346 3 3-1.346 3-3 3z"/><path d="m18.899 10.868c.068.417.101.787.101 1.132s-.033.715-.101 1.132l-.089.549s.925.805 1.425 1.24c.182.158.226.423.106.631-.289.499-.807 1.397-1.096 1.896-.12.208-.371.302-.599.224-.626-.215-1.78-.613-1.78-.613l-.432.354c-.577.474-1.238.854-1.965 1.128l-.521.197s-.234 1.203-.36 1.855c-.046.236-.253.407-.494.407h-2.188c-.241 0-.448-.171-.494-.407-.127-.651-.361-1.854-.361-1.854l-.521-.197c-.727-.274-1.388-.654-1.965-1.128l-.432-.354s-1.154.398-1.78.613c-.228.078-.479-.016-.599-.224-.289-.499-.807-1.397-1.096-1.896-.12-.208-.076-.473.106-.631.5-.435 1.425-1.24 1.425-1.24l-.089-.549c-.067-.418-.1-.788-.1-1.133s.033-.715.101-1.132l.089-.549s-.925-.805-1.426-1.24c-.182-.158-.226-.423-.106-.631.289-.499.807-1.397 1.096-1.896.12-.208.371-.302.599-.224.626.215 1.78.613 1.78.613l.432-.354c.577-.474 1.238-.854 1.965-1.128l.521-.197s.234-1.204.361-1.855c.046-.236.253-.407.494-.407h2.188c.241 0 .448.171.494.407.127.651.361 1.854.361 1.854l.521.197c.727.274 1.388.654 1.965 1.128l.432.354s1.154-.398 1.78-.613c.228-.078.479.016.599.224.289.499.807 1.397 1.096 1.896.12.208.076.473-.106.631-.5.435-1.425 1.24-1.425 1.24z"/></g></g></svg>

<?xml version="1.0" encoding="UTF-8" standalone="no"?>
<!DOCTYPE svg PUBLIC "-//W3C//DTD SVG 1.1//EN" "http://www.w3.org/Graphics/SVG/1.1/DTD/svg11.dtd">
<svg width="100%" height="100%" viewBox="0 0 24 24" version="1.1" xmlns="http://www.w3.org/2000/svg" xmlns:xlink="http://www.w3.org/1999/xlink" xml:space="preserve" xmlns:serif="http://www.serif.com/" style="fill-rule:evenodd;clip-rule:evenodd;">
    <rect x="0" y="0" width="24" height="24" style="fill:none;fill-rule:nonzero;"/>
    <path d="M12,15C10.346,15 9,13.654 9,12C9,10.346 10.346,9 12,9C13.654,9 15,10.346 15,12C15,13.654 13.654,15 12,15Z" style="fill:none;fill-rule:nonzero;stroke:rgb(26,188,156);stroke-width:2px;"/>
    <path d="M18.899,10.868C18.967,11.285 19,11.655 19,12C19,12.345 18.967,12.715 18.899,13.132L18.81,13.681C18.81,13.681 19.735,14.486 20.235,14.921C20.417,15.079 20.461,15.344 20.341,15.552C20.052,16.051 19.534,16.949 19.245,17.448C19.125,17.656 18.874,17.75 18.646,17.672C18.02,17.457 16.866,17.059 16.866,17.059L16.434,17.413C15.857,17.887 15.196,18.267 14.469,18.541L13.948,18.738C13.948,18.738 13.714,19.941 13.588,20.593C13.542,20.829 13.335,21 13.094,21C12.518,21 11.482,21 10.906,21C10.665,21 10.458,20.829 10.412,20.593C10.285,19.942 10.051,18.739 10.051,18.739L9.53,18.542C8.803,18.268 8.142,17.888 7.565,17.414L7.133,17.06C7.133,17.06 5.979,17.458 5.353,17.673C5.125,17.751 4.874,17.657 4.754,17.449C4.465,16.95 3.947,16.052 3.658,15.553C3.538,15.345 3.582,15.08 3.764,14.922C4.264,14.487 5.189,13.682 5.189,13.682L5.1,13.133C5.033,12.715 5,12.345 5,12C5,11.655 5.033,11.285 5.101,10.868L5.19,10.319C5.19,10.319 4.265,9.514 3.764,9.079C3.582,8.921 3.538,8.656 3.658,8.448C3.947,7.949 4.465,7.051 4.754,6.552C4.874,6.344 5.125,6.25 5.353,6.328C5.979,6.543 7.133,6.941 7.133,6.941L7.565,6.587C8.142,6.113 8.803,5.733 9.53,5.459L10.051,5.262C10.051,5.262 10.285,4.058 10.412,3.407C10.458,3.171 10.665,3 10.906,3C11.482,3 12.518,3 13.094,3C13.335,3 13.542,3.171 13.588,3.407C13.715,4.058 13.949,5.261 13.949,5.261L14.47,5.458C15.197,5.732 15.858,6.112 16.435,6.586L16.867,6.94C16.867,6.94 18.021,6.542 18.647,6.327C18.875,6.249 19.126,6.343 19.246,6.551C19.535,7.05 20.053,7.948 20.342,8.447C20.462,8.655 20.418,8.92 20.236,9.078C19.736,9.513 18.811,10.318 18.811,10.318L18.899,10.868Z" style="fill:none;fill-rule:nonzero;stroke:rgb(26,188,156);stroke-width:2px;"/>
</svg>
